ui/public/images/guides/guide-alternant/simulateur.svg

<svg width="196" height="223" viewBox="0 0 196 223" fill="none" xmlns="http://www.w3.org/2000/svg">
<g clip-path="url(#clip0_460_6213)">
<rect width="196" height="223" fill="#F6F6F6"/>
<path d="M-72.6943 99.5031C-68.5699 112.976 -52.8972 139.714 -23.2019 138.885C13.9172 137.848 24.2281 78.7759 92.28 77.7395C160.332 76.7032 244.881 156.503 271.689 117.121" stroke="#ECECFE" stroke-width="5" stroke-linecap="round" stroke-linejoin="round" stroke-dasharray="4 10"/>
<path d="M21.7129 85.0049C30.9006 85.0049 38.3789 92.4962 38.3789 101.774C38.3788 111.053 30.9005 118.543 21.7129 118.543C12.5254 118.543 5.04703 111.052 5.04688 101.774C5.04688 92.4962 12.5253 85.005 21.7129 85.0049Z" stroke="#D3DFFC" stroke-width="7"/>
<ellipse cx="187.434" cy="119.328" rx="23.0471" ry="23.1649" fill="#FDE2B5"/>
<ellipse cx="173.784" cy="56.7505" rx="16.1329" ry="16.2154" fill="#FDC6BA"/>
<path d="M175.784 69.8087C175.784 63.1541 170.417 57.758 163.798 57.7544C163.794 57.7544 163.792 57.7544 163.791 57.7544H112.77C106.145 57.7544 100.776 63.1523 100.776 69.8123V153.188C100.776 159.848 106.145 165.246 112.77 165.246H163.791C170.415 165.246 175.784 159.848 175.784 153.188V69.8087Z" fill="#6A6AF4"/>
<path d="M154.712 163.522C154.468 163.522 154.247 163.352 154.192 163.103C154.126 162.813 154.308 162.526 154.595 162.46C161.262 160.942 161.821 154.472 161.821 147.973V86.9993C161.821 86.7021 162.06 86.4622 162.355 86.4622C162.651 86.4622 162.889 86.7021 162.889 86.9993V147.973C162.889 151.308 162.742 154.783 161.666 157.603C160.444 160.808 158.208 162.739 154.83 163.508C154.791 163.516 154.75 163.522 154.71 163.522H154.712Z" fill="#000091"/>
<path d="M151.326 68.5608H112.611C109.945 68.5608 107.783 70.7338 107.783 73.4144V82.0617C107.783 84.7423 109.945 86.9153 112.611 86.9153H151.326C153.993 86.9153 156.154 84.7423 156.154 82.0617V73.4144C156.154 70.7338 153.993 68.5608 151.326 68.5608Z" fill="white"/>
<path d="M116.235 92.9272H109.055C108.367 92.9272 107.809 93.4883 107.809 94.1805V101.075C107.809 101.767 108.367 102.328 109.055 102.328H116.235C116.924 102.328 117.482 101.767 117.482 101.075V94.1805C117.482 93.4883 116.924 92.9272 116.235 92.9272Z" fill="#000091"/>
<path d="M142.12 92.9272H134.94C134.251 92.9272 133.693 93.4883 133.693 94.1805V101.075C133.693 101.767 134.251 102.328 134.94 102.328H142.12C142.808 102.328 143.366 101.767 143.366 101.075V94.1805C143.366 93.4883 142.808 92.9272 142.12 92.9272Z" fill="#000091"/>
<path d="M129.178 92.9272H121.998C121.309 92.9272 120.751 93.4883 120.751 94.1805V101.075C120.751 101.767 121.309 102.328 121.998 102.328H129.178C129.866 102.328 130.424 101.767 130.424 101.075V94.1805C130.424 93.4883 129.866 92.9272 129.178 92.9272Z" fill="#000091"/>
<path d="M116.235 104.94H109.055C108.367 104.94 107.809 105.502 107.809 106.194V113.088C107.809 113.78 108.367 114.341 109.055 114.341H116.235C116.924 114.341 117.482 113.78 117.482 113.088V106.194C117.482 105.502 116.924 104.94 116.235 104.94Z" fill="#000091"/>
<path d="M142.12 104.94H134.94C134.251 104.94 133.693 105.502 133.693 106.194V113.088C133.693 113.78 134.251 114.341 134.94 114.341H142.12C142.808 114.341 143.366 113.78 143.366 113.088V106.194C143.366 105.502 142.808 104.94 142.12 104.94Z" fill="#000091"/>
<path d="M129.178 104.94H121.998C121.309 104.94 120.751 105.502 120.751 106.194V113.088C120.751 113.78 121.309 114.341 121.998 114.341H129.178C129.866 114.341 130.424 113.78 130.424 113.088V106.194C130.424 105.502 129.866 104.94 129.178 104.94Z" fill="#000091"/>
<path d="M116.235 117.474H109.055C108.367 117.474 107.809 118.035 107.809 118.728V125.622C107.809 126.314 108.367 126.875 109.055 126.875H116.235C116.924 126.875 117.482 126.314 117.482 125.622V118.728C117.482 118.035 116.924 117.474 116.235 117.474Z" fill="#000091"/>
<path d="M142.12 117.474H134.94C134.251 117.474 133.693 118.035 133.693 118.728V125.622C133.693 126.314 134.251 126.875 134.94 126.875H142.12C142.808 126.875 143.366 126.314 143.366 125.622V118.728C143.366 118.035 142.808 117.474 142.12 117.474Z" fill="#000091"/>
<path d="M129.178 117.474H121.998C121.309 117.474 120.751 118.035 120.751 118.728V125.622C120.751 126.314 121.309 126.875 121.998 126.875H129.178C129.866 126.875 130.424 126.314 130.424 125.622V118.728C130.424 118.035 129.866 117.474 129.178 117.474Z" fill="#000091"/>
<path d="M116.235 129.905H109.055C108.367 129.905 107.809 130.466 107.809 131.158V138.053C107.809 138.745 108.367 139.306 109.055 139.306H116.235C116.924 139.306 117.482 138.745 117.482 138.053V131.158C117.482 130.466 116.924 129.905 116.235 129.905Z" fill="#000091"/>
<path d="M142.12 129.905H134.94C134.251 129.905 133.693 130.466 133.693 131.158V138.053C133.693 138.745 134.251 139.306 134.94 139.306H142.12C142.808 139.306 143.366 138.745 143.366 138.053V131.158C143.366 130.466 142.808 129.905 142.12 129.905Z" fill="#000091"/>
<path d="M155.462 114.879H148.28C147.299 114.879 146.499 114.075 146.499 113.088V106.194C146.499 105.207 147.299 104.403 148.28 104.403H155.462C156.443 104.403 157.242 105.207 157.242 106.194V113.088C157.242 114.075 156.443 114.879 155.462 114.879ZM148.282 105.478C147.888 105.478 147.569 105.798 147.569 106.194V113.088C147.569 113.484 147.888 113.804 148.282 113.804H155.463C155.857 113.804 156.176 113.484 156.176 113.088V106.194C156.176 105.798 155.857 105.478 155.463 105.478H148.282Z" fill="#000091"/>
<path d="M155.462 102.726H148.28C147.299 102.726 146.499 101.922 146.499 100.935V94.0408C146.499 93.0543 147.299 92.2505 148.28 92.2505H155.462C156.443 92.2505 157.242 93.0543 157.242 94.0408V100.935C157.242 101.922 156.443 102.726 155.462 102.726ZM148.282 93.3247C147.888 93.3247 147.569 93.6452 147.569 94.0408V100.935C147.569 101.331 147.888 101.652 148.282 101.652H155.463C155.857 101.652 156.176 101.331 156.176 100.935V94.0408C156.176 93.6452 155.857 93.3247 155.463 93.3247H148.282Z" fill="#000091"/>
<path d="M155.462 127.413H148.28C147.299 127.413 146.499 126.609 146.499 125.622V118.728C146.499 117.741 147.299 116.938 148.28 116.938H155.462C156.443 116.938 157.242 117.741 157.242 118.728V125.622C157.242 126.609 156.443 127.413 155.462 127.413ZM148.282 118.012C147.888 118.012 147.569 118.332 147.569 118.728V125.622C147.569 126.018 147.888 126.339 148.282 126.339H155.463C155.857 126.339 156.176 126.018 156.176 125.622V118.728C156.176 118.332 155.857 118.012 155.463 118.012H148.282Z" fill="#000091"/>
<path d="M155.462 139.843H148.28C147.299 139.843 146.499 139.039 146.499 138.053V131.158C146.499 130.172 147.299 129.368 148.28 129.368H155.462C156.443 129.368 157.242 130.172 157.242 131.158V138.053C157.242 139.039 156.443 139.843 155.462 139.843ZM148.282 130.442C147.888 130.442 147.569 130.762 147.569 131.158V138.053C147.569 138.448 147.888 138.769 148.282 138.769H155.463C155.857 138.769 156.176 138.448 156.176 138.053V131.158C156.176 130.762 155.857 130.442 155.463 130.442H148.282Z" fill="#000091"/>
<path d="M129.178 129.905H121.998C121.309 129.905 120.751 130.466 120.751 131.158V138.053C120.751 138.745 121.309 139.306 121.998 139.306H129.178C129.866 139.306 130.424 138.745 130.424 138.053V131.158C130.424 130.466 129.866 129.905 129.178 129.905Z" fill="#000091"/>
<path d="M142.122 152.474H134.94C133.959 152.474 133.159 151.67 133.159 150.683V143.789C133.159 142.802 133.959 141.999 134.94 141.999H142.122C143.103 141.999 143.903 142.802 143.903 143.789V150.683C143.903 151.67 143.103 152.474 142.122 152.474ZM134.94 143.073C134.546 143.073 134.228 143.393 134.228 143.789V150.683C134.228 151.079 134.546 151.4 134.94 151.4H142.122C142.515 151.4 142.834 151.079 142.834 150.683V143.789C142.834 143.393 142.515 143.073 142.122 143.073H134.94Z" fill="#000091"/>
<path d="M148.335 152.474H148.013C147.179 152.474 146.501 151.792 146.501 150.954V143.517C146.501 142.679 147.179 141.997 148.013 141.997H155.732C156.566 141.997 157.244 142.679 157.244 143.517C157.244 148.455 153.248 152.472 148.337 152.472L148.335 152.474ZM148.013 143.073C147.769 143.073 147.569 143.273 147.569 143.519V150.956C147.569 151.201 147.769 151.401 148.013 151.401H148.335C152.657 151.401 156.174 147.866 156.174 143.52C156.174 143.275 155.975 143.075 155.731 143.075H148.011L148.013 143.073Z" fill="#000091"/>
<path d="M129.18 152.474H122C121.018 152.474 120.219 151.67 120.219 150.683V143.789C120.219 142.802 121.018 141.999 122 141.999H129.18C130.161 141.999 130.96 142.802 130.96 143.789V150.683C130.96 151.67 130.161 152.474 129.18 152.474ZM121.998 143.073C121.604 143.073 121.285 143.393 121.285 143.789V150.683C121.285 151.079 121.604 151.4 121.998 151.4H129.178C129.571 151.4 129.89 151.079 129.89 150.683V143.789C129.89 143.393 129.571 143.073 129.178 143.073H121.998Z" fill="#000091"/>
<path d="M116.627 152.474H116.305C111.394 152.474 107.397 148.456 107.397 143.519C107.397 142.681 108.076 141.999 108.909 141.999H116.629C117.462 141.999 118.141 142.681 118.141 143.519V150.956C118.141 151.793 117.462 152.476 116.629 152.476L116.627 152.474ZM108.908 143.073C108.664 143.073 108.464 143.273 108.464 143.519C108.464 147.865 111.981 151.4 116.303 151.4H116.625C116.869 151.4 117.069 151.199 117.069 150.954V143.517C117.069 143.271 116.869 143.071 116.625 143.071H108.906L108.908 143.073Z" fill="#000091"/>
<path d="M162.355 74.161C162.06 74.161 161.821 73.9211 161.821 73.6239C161.821 67.1249 161.264 60.6547 154.595 59.1365C154.306 59.0702 154.126 58.7838 154.192 58.4937C154.258 58.2037 154.545 58.0229 154.832 58.0891C158.21 58.859 160.446 60.7889 161.668 63.9936C162.742 66.8134 162.891 70.2885 162.891 73.6239C162.891 73.9211 162.653 74.161 162.357 74.161H162.355Z" fill="#000091"/>
<path d="M123.204 78.166H124.445V77.2776H123.204V75.6252H124.614C125.063 73.1626 126.414 71.9612 128.584 71.9612C130.026 71.9612 131.127 72.5688 131.855 73.5354L130.273 74.7368C129.916 74.1913 129.39 73.8024 128.613 73.8024C127.684 73.8024 127.032 74.2397 126.736 75.6252H130.472V77.2776H126.565V78.166H130.472V79.8185H126.736C127.016 81.2362 127.666 81.6735 128.613 81.6735C129.373 81.6735 129.9 81.2684 130.273 80.7391L131.855 81.9244C131.127 82.891 130.026 83.5147 128.584 83.5147C126.414 83.5147 125.063 82.3133 124.614 79.8208H123.204V78.1683V78.166Z" fill="#000091"/>
<path d="M132.508 78.166H133.749V77.2776H132.508V75.6252H133.918C134.367 73.1626 135.717 71.9612 137.887 71.9612C139.33 71.9612 140.431 72.5688 141.159 73.5354L139.577 74.7368C139.22 74.1913 138.693 73.8024 137.917 73.8024C136.988 73.8024 136.335 74.2397 136.04 75.6252H139.776V77.2776H135.868V78.166H139.776V79.8185H136.04C136.319 81.2362 136.969 81.6735 137.917 81.6735C138.677 81.6735 139.204 81.2684 139.577 80.7391L141.159 81.9244C140.431 82.891 139.33 83.5147 137.887 83.5147C135.717 83.5147 134.367 82.3133 133.918 79.8208H132.508V78.1683V78.166Z" fill="#000091"/>
<path d="M141.813 78.166H143.054V77.2776H141.813V75.6252H143.224C143.672 73.1626 145.023 71.9612 147.193 71.9612C148.635 71.9612 149.736 72.5688 150.464 73.5354L148.883 74.7368C148.525 74.1913 147.999 73.8024 147.223 73.8024C146.293 73.8024 145.641 74.2397 145.346 75.6252H149.082V77.2776H145.174V78.166H149.082V79.8185H145.346C145.625 81.2362 146.275 81.6735 147.223 81.6735C147.983 81.6735 148.509 81.2684 148.883 80.7391L150.464 81.9244C149.736 82.891 148.635 83.5147 147.193 83.5147C145.023 83.5147 143.672 82.3133 143.224 79.8208H141.813V78.1683V78.166Z" fill="#000091"/>
<path d="M81.4728 131.249C83.7059 139.548 94.1803 140.004 99.4585 132.993C104.737 125.982 113.185 131.833 109.425 137.578C105.668 143.323 97.4605 162.374 72.0027 152.064L41.6264 161.098C40.923 161.307 40.2107 161.572 39.4895 161.837C35.9921 162.62 28.8708 162.398 23.224 150.485C23.0459 150.111 22.5865 149.067 22.5188 148.915C17.7517 137.673 21.502 131.837 23.7974 129.547C30.7548 126.213 41.9167 121.564 41.9167 121.564L51.8729 102.366C51.8729 102.366 55.1495 96.4059 59.4661 99.0592C63.7827 101.712 58.85 109.169 58.85 109.169C58.9657 109.509 62.1497 104.609 66.2099 97.8937C68.9255 93.4017 74.478 93.7132 76.1519 98.9679C76.8838 97.8507 78.9619 94.9271 78.9619 94.9271C78.9619 94.9271 81.9055 89.8461 87.1962 92.8825C91.9562 95.6146 86.3503 103.787 83.3337 108.625C85.321 106.955 87.8657 105.963 90.5547 105.696C90.5547 105.696 122.596 94.0999 125.522 95.4105C128.448 96.721 125.837 105.042 120.781 107.93C115.726 110.818 97.9093 116.936 97.9093 116.936C97.9093 116.936 78.5149 120.26 81.4728 131.248V131.249Z" fill="#FCC0B4"/>
<path d="M64.5028 116.972C64.4012 116.972 64.298 116.943 64.2054 116.88C63.9596 116.715 63.8955 116.381 64.0593 116.135L75.2942 99.2901C75.458 99.0431 75.791 98.9786 76.035 99.1433C76.2807 99.308 76.3448 99.6428 76.181 99.8881L64.9462 116.733C64.8429 116.887 64.6737 116.972 64.5028 116.972Z" fill="#000091"/>
<path d="M71.6573 114.737C71.4686 114.737 71.2852 114.635 71.1872 114.458C71.0465 114.196 71.1409 113.871 71.4009 113.729L83.6241 107.026C83.8823 106.885 84.2082 106.98 84.3488 107.241C84.4895 107.501 84.3951 107.828 84.1352 107.97L71.912 114.673C71.8301 114.717 71.7428 114.739 71.6573 114.739V114.737Z" fill="#000091"/>
<path d="M51.941 119.951C51.843 119.951 51.7451 119.924 51.6561 119.868C51.4068 119.709 51.332 119.378 51.4904 119.127L61.2651 103.6C61.4236 103.349 61.753 103.274 62.0023 103.433C62.2516 103.592 62.3264 103.924 62.1679 104.174L52.3933 119.702C52.2918 119.863 52.1191 119.952 51.941 119.952V119.951Z" fill="#000091"/>
</g>
<defs>
<clipPath id="clip0_460_6213">
<rect width="196" height="223" fill="white"/>
</clipPath>
</defs>
</svg>

<svg xmlns="http://www.w3.org/2000/svg" width="196" height="223" fill="none" viewBox="0 0 196 223"><g clip-path="url(#a)"><path fill="#f6f6f6" d="M0 0h196v223H0z"/><path stroke="#ececfe" stroke-dasharray="4 10" stroke-linecap="round" stroke-linejoin="round" stroke-width="5" d="M-72.694 99.503c4.124 13.473 19.797 40.211 49.492 39.382 37.12-1.037 47.43-60.11 115.482-61.145 68.052-1.037 152.601 78.763 179.409 39.381"/><path stroke="#d3dffc" stroke-width="7" d="M21.713 85.005c9.188 0 16.666 7.491 16.666 16.769 0 9.279-7.478 16.769-16.666 16.769s-16.666-7.491-16.666-16.769 7.478-16.769 16.666-16.77Z"/><ellipse cx="187.434" cy="119.328" fill="#fde2b5" rx="23.047" ry="23.165"/><ellipse cx="173.784" cy="56.751" fill="#fdc6ba" rx="16.133" ry="16.215"/><path fill="#6a6af4" d="M175.784 69.809c0-6.655-5.367-12.051-11.986-12.055H112.77c-6.625 0-11.994 5.398-11.994 12.058v83.376c0 6.66 5.369 12.058 11.994 12.058h51.021c6.624 0 11.993-5.398 11.993-12.058z"/><path fill="#000091" d="M154.712 163.522a.538.538 0 0 1-.117-1.062c6.667-1.518 7.226-7.988 7.226-14.487V86.999a.535.535 0 1 1 1.068 0v60.974c0 3.335-.147 6.81-1.223 9.63-1.222 3.205-3.458 5.136-6.836 5.905a.6.6 0 0 1-.12.014z"/><path fill="#fff" d="M151.326 68.56h-38.715c-2.666 0-4.828 2.174-4.828 4.854v8.648c0 2.68 2.162 4.853 4.828 4.853h38.715c2.667 0 4.828-2.173 4.828-4.853v-8.648c0-2.68-2.161-4.853-4.828-4.853"/><path fill="#000091" d="M116.235 92.927h-7.18a1.25 1.25 0 0 0-1.246 1.253v6.895a1.25 1.25 0 0 0 1.246 1.253h7.18a1.25 1.25 0 0 0 1.247-1.253V94.18a1.25 1.25 0 0 0-1.247-1.253M142.12 92.927h-7.18a1.25 1.25 0 0 0-1.247 1.253v6.895a1.25 1.25 0 0 0 1.247 1.253h7.18a1.25 1.25 0 0 0 1.246-1.253V94.18a1.25 1.25 0 0 0-1.246-1.253M129.178 92.927h-7.18a1.25 1.25 0 0 0-1.247 1.253v6.895a1.25 1.25 0 0 0 1.247 1.253h7.18a1.25 1.25 0 0 0 1.246-1.253V94.18a1.25 1.25 0 0 0-1.246-1.253M116.235 104.94h-7.18a1.25 1.25 0 0 0-1.246 1.254v6.894a1.25 1.25 0 0 0 1.246 1.253h7.18a1.25 1.25 0 0 0 1.247-1.253v-6.894a1.25 1.25 0 0 0-1.247-1.254M142.12 104.94h-7.18a1.25 1.25 0 0 0-1.247 1.254v6.894a1.25 1.25 0 0 0 1.247 1.253h7.18a1.25 1.25 0 0 0 1.246-1.253v-6.894a1.25 1.25 0 0 0-1.246-1.254M129.178 104.94h-7.18a1.25 1.25 0 0 0-1.247 1.254v6.894a1.25 1.25 0 0 0 1.247 1.253h7.18a1.25 1.25 0 0 0 1.246-1.253v-6.894a1.25 1.25 0 0 0-1.246-1.254M116.235 117.474h-7.18a1.25 1.25 0 0 0-1.246 1.254v6.894a1.25 1.25 0 0 0 1.246 1.253h7.18a1.25 1.25 0 0 0 1.247-1.253v-6.894a1.25 1.25 0 0 0-1.247-1.254M142.12 117.474h-7.18a1.25 1.25 0 0 0-1.247 1.254v6.894a1.25 1.25 0 0 0 1.247 1.253h7.18a1.25 1.25 0 0 0 1.246-1.253v-6.894a1.25 1.25 0 0 0-1.246-1.254M129.178 117.474h-7.18a1.25 1.25 0 0 0-1.247 1.254v6.894a1.25 1.25 0 0 0 1.247 1.253h7.18a1.25 1.25 0 0 0 1.246-1.253v-6.894a1.25 1.25 0 0 0-1.246-1.254M116.235 129.905h-7.18a1.25 1.25 0 0 0-1.246 1.253v6.895a1.25 1.25 0 0 0 1.246 1.253h7.18a1.25 1.25 0 0 0 1.247-1.253v-6.895a1.25 1.25 0 0 0-1.247-1.253M142.12 129.905h-7.18a1.25 1.25 0 0 0-1.247 1.253v6.895a1.25 1.25 0 0 0 1.247 1.253h7.18a1.25 1.25 0 0 0 1.246-1.253v-6.895a1.25 1.25 0 0 0-1.246-1.253M155.462 114.879h-7.182a1.79 1.79 0 0 1-1.781-1.791v-6.894c0-.987.8-1.791 1.781-1.791h7.182c.981 0 1.78.804 1.78 1.791v6.894c0 .987-.799 1.791-1.78 1.791m-7.18-9.401a.714.714 0 0 0-.713.716v6.894c0 .396.319.716.713.716h7.181c.394 0 .713-.32.713-.716v-6.894a.714.714 0 0 0-.713-.716zM155.462 102.726h-7.182a1.79 1.79 0 0 1-1.781-1.791v-6.894c0-.987.8-1.79 1.781-1.79h7.182c.981 0 1.78.803 1.78 1.79v6.894c0 .987-.799 1.791-1.78 1.791m-7.18-9.401a.714.714 0 0 0-.713.716v6.894c0 .396.319.717.713.717h7.181a.715.715 0 0 0 .713-.717v-6.894a.714.714 0 0 0-.713-.716zM155.462 127.413h-7.182a1.79 1.79 0 0 1-1.781-1.791v-6.894c0-.987.8-1.79 1.781-1.79h7.182c.981 0 1.78.803 1.78 1.79v6.894c0 .987-.799 1.791-1.78 1.791m-7.18-9.401a.714.714 0 0 0-.713.716v6.894c0 .396.319.717.713.717h7.181a.715.715 0 0 0 .713-.717v-6.894a.714.714 0 0 0-.713-.716zM155.462 139.843h-7.182a1.79 1.79 0 0 1-1.781-1.79v-6.895c0-.986.8-1.79 1.781-1.79h7.182c.981 0 1.78.804 1.78 1.79v6.895c0 .986-.799 1.79-1.78 1.79m-7.18-9.401a.714.714 0 0 0-.713.716v6.895c0 .395.319.716.713.716h7.181a.715.715 0 0 0 .713-.716v-6.895a.714.714 0 0 0-.713-.716zM129.178 129.905h-7.18a1.25 1.25 0 0 0-1.247 1.253v6.895a1.25 1.25 0 0 0 1.247 1.253h7.18a1.25 1.25 0 0 0 1.246-1.253v-6.895a1.25 1.25 0 0 0-1.246-1.253M142.122 152.474h-7.182a1.79 1.79 0 0 1-1.781-1.791v-6.894c0-.987.8-1.79 1.781-1.79h7.182c.981 0 1.781.803 1.781 1.79v6.894c0 .987-.8 1.791-1.781 1.791m-7.182-9.401a.713.713 0 0 0-.712.716v6.894c0 .396.318.717.712.717h7.182a.715.715 0 0 0 .712-.717v-6.894a.714.714 0 0 0-.712-.716zM148.335 152.474h-.322a1.52 1.52 0 0 1-1.512-1.52v-7.437c0-.838.678-1.52 1.512-1.52h7.719c.834 0 1.512.682 1.512 1.52 0 4.938-3.996 8.955-8.907 8.955zm-.322-9.401c-.244 0-.444.2-.444.446v7.437c0 .245.2.445.444.445h.322c4.322 0 7.839-3.535 7.839-7.881a.445.445 0 0 0-.443-.445h-7.72zM129.18 152.474H122a1.79 1.79 0 0 1-1.781-1.791v-6.894c0-.987.799-1.79 1.781-1.79h7.18c.981 0 1.78.803 1.78 1.79v6.894c0 .987-.799 1.791-1.78 1.791m-7.182-9.401a.714.714 0 0 0-.713.716v6.894c0 .396.319.717.713.717h7.18a.715.715 0 0 0 .712-.717v-6.894a.714.714 0 0 0-.712-.716zM116.627 152.474h-.322c-4.911 0-8.908-4.018-8.908-8.955 0-.838.679-1.52 1.512-1.52h7.72c.833 0 1.512.682 1.512 1.52v7.437c0 .837-.679 1.52-1.512 1.52zm-7.719-9.401c-.244 0-.444.2-.444.446 0 4.346 3.517 7.881 7.839 7.881h.322a.447.447 0 0 0 .444-.446v-7.437c0-.246-.2-.446-.444-.446h-7.719zM162.355 74.161a.535.535 0 0 1-.534-.537c0-6.5-.557-12.97-7.226-14.487a.536.536 0 0 1-.403-.643.534.534 0 0 1 .64-.405c3.378.77 5.614 2.7 6.836 5.905 1.074 2.82 1.223 6.294 1.223 9.63a.535.535 0 0 1-.534.537zM123.204 78.166h1.241v-.888h-1.241v-1.653h1.41c.449-2.462 1.8-3.664 3.97-3.664 1.442 0 2.543.608 3.271 1.574l-1.582 1.202c-.357-.546-.883-.935-1.66-.935-.929 0-1.581.438-1.877 1.823h3.736v1.653h-3.907v.888h3.907v1.653h-3.736c.28 1.417.93 1.855 1.877 1.855.76 0 1.287-.406 1.66-.935l1.582 1.185c-.728.967-1.829 1.59-3.271 1.59-2.17 0-3.521-1.2-3.97-3.693h-1.41v-1.655M132.508 78.166h1.241v-.888h-1.241v-1.653h1.41c.449-2.462 1.799-3.664 3.969-3.664 1.443 0 2.544.608 3.272 1.574l-1.582 1.202c-.357-.546-.884-.935-1.66-.935-.929 0-1.582.438-1.877 1.823h3.736v1.653h-3.908v.888h3.908v1.653h-3.736c.279 1.417.929 1.855 1.877 1.855.76 0 1.287-.406 1.66-.935l1.582 1.185c-.728.967-1.829 1.59-3.272 1.59-2.17 0-3.52-1.2-3.969-3.693h-1.41v-1.655M141.813 78.166h1.241v-.888h-1.241v-1.653h1.411c.448-2.462 1.799-3.664 3.969-3.664 1.442 0 2.543.608 3.271 1.574l-1.581 1.202c-.358-.546-.884-.935-1.66-.935-.93 0-1.582.438-1.877 1.823h3.736v1.653h-3.908v.888h3.908v1.653h-3.736c.279 1.417.929 1.855 1.877 1.855.76 0 1.286-.406 1.66-.935l1.581 1.185c-.728.967-1.829 1.59-3.271 1.59-2.17 0-3.521-1.2-3.969-3.693h-1.411v-1.655"/><path fill="#fcc0b4" d="M81.473 131.249c2.233 8.299 12.707 8.755 17.986 1.744 5.278-7.011 13.726-1.16 9.966 4.585-3.757 5.745-11.965 24.796-37.422 14.486l-30.377 9.034c-.703.209-1.415.474-2.136.739-3.498.783-10.62.561-16.266-11.352-.178-.374-.637-1.418-.705-1.57-4.767-11.242-1.017-17.078 1.278-19.368 6.958-3.334 18.12-7.983 18.12-7.983l9.956-19.198s3.277-5.96 7.593-3.307c4.317 2.653-.616 10.11-.616 10.11.116.34 3.3-4.56 7.36-11.275 2.716-4.492 8.268-4.18 9.942 1.074.732-1.117 2.81-4.04 2.81-4.04s2.944-5.082 8.234-2.046c4.76 2.733-.846 10.905-3.862 15.743 1.987-1.67 4.532-2.662 7.22-2.929 0 0 32.042-11.596 34.968-10.285s.315 9.631-4.741 12.519c-5.055 2.888-22.872 9.006-22.872 9.006s-19.394 3.324-16.436 14.312z"/><path fill="#000091" d="M64.503 116.972a.538.538 0 0 1-.444-.837L75.294 99.29a.53.53 0 0 1 .741-.147c.246.165.31.5.146.745l-11.235 16.845a.54.54 0 0 1-.443.239M71.657 114.737a.538.538 0 0 1-.256-1.008l12.223-6.703a.533.533 0 0 1 .725.215c.14.26.046.587-.214.729l-12.223 6.703a.54.54 0 0 1-.255.066zM51.941 119.951a.538.538 0 0 1-.45-.824l9.774-15.527a.53.53 0 0 1 .737-.167c.25.159.324.491.166.741l-9.775 15.528a.53.53 0 0 1-.452.25z"/></g><defs><clipPath id="a"><path fill="#fff" d="M0 0h196v223H0z"/></clipPath></defs></svg>
